src/components/00-materials/images-raw/Ring.svg

<svg width="96" height="96" viewBox="0 0 96 96" fill="none" xmlns="http://www.w3.org/2000/svg">
<path d="M56.85 35.3402C61.009 37.3452 64.3653 40.7012 66.3708 44.86C68.3763 49.0189 68.9124 53.7348 67.8916 58.2376C66.8708 62.7405 64.3535 66.7642 60.7506 69.6516C57.1478 72.5391 52.6724 74.1196 48.0553 74.1351C43.4382 74.1506 38.9523 72.6002 35.3301 69.7371C31.7079 66.8739 29.1636 62.8672 28.1125 58.3713C27.0615 53.8755 27.5659 49.156 29.5434 44.9838C31.5209 40.8116 34.8545 37.4332 39 35.4002M35.6 31.7702C30.7379 34.5148 26.9231 38.7941 24.7526 43.9382C22.5822 49.0824 22.1786 54.801 23.6052 60.1989C25.0317 65.5969 28.2078 70.3695 32.6363 73.7697C37.0648 77.1699 42.4957 79.0058 48.079 78.9899C53.6622 78.9741 59.0827 77.1075 63.4918 73.6822C67.9009 70.257 71.0499 65.4664 72.4458 60.0605C73.8417 54.6545 73.4058 48.9383 71.2062 43.8065C69.0066 38.6748 65.1676 34.4172 60.29 31.7002" stroke="#00008F" stroke-width="2" stroke-linecap="round" stroke-linejoin="round"/>
<path d="M29.26 25.07L35.6 31.77L39 35.4L48 44.72H48.13L56.9 35.34L60.34 31.7L66.78 24.89C66.8344 24.8238 66.8642 24.7407 66.8642 24.655C66.8642 24.5693 66.8344 24.4862 66.78 24.42L62 17.06C61.9676 17.0274 61.9255 17.0063 61.88 17H34.21C34.15 17 34.08 17.06 34.02 17.06L29.09 24.64C29.0616 24.6755 29.0461 24.7196 29.0461 24.765C29.0461 24.8104 29.0616 24.8545 29.09 24.89L29.26 25.07" stroke="#00008F" stroke-width="2" stroke-linecap="round" stroke-linejoin="round"/>
<path d="M65.72 25.0698H29.26M48.42 17.5698L54.86 24.6398L61.36 17.5698H48.42ZM34.71 17.5698L41.22 24.6398L47.66 17.5698H34.71ZM41.53 25.2098L43.19 30.0298L44.5 33.8598L48.02 44.7198L51.57 33.8798L52.98 29.7498L54.54 25.2098H41.53ZM29.26 25.0698H29.24H29.26Z" stroke="#00008F" stroke-width="2" stroke-linecap="round" stroke-linejoin="round"/>
</svg>

<svg width="96" height="96" viewBox="0 0 96 96" fill="none" xmlns="http://www.w3.org/2000/svg"><path d="M56.85 35.34A20.41 20.41 0 1139 35.4m-3.4-3.63a25.24 25.24 0 1024.69-.07" stroke="#00008F" stroke-width="2" stroke-linecap="round" stroke-linejoin="round"/><path d="M29.26 25.07l6.34 6.7L39 35.4l9 9.32h.13l8.77-9.38 3.44-3.64 6.44-6.81a.37.37 0 000-.47L62 17.06a.21.21 0 00-.12-.06H34.21c-.06 0-.13.06-.19.06l-4.93 7.58a.2.2 0 000 .25l.17.18" stroke="#00008F" stroke-width="2" stroke-linecap="round" stroke-linejoin="round"/><path d="M65.72 25.07H29.26m19.16-7.5l6.44 7.07 6.5-7.07H48.42zm-13.71 0l6.51 7.07 6.44-7.07H34.71zm6.82 7.64l1.66 4.82 1.31 3.83 3.52 10.86 3.55-10.84 1.41-4.13 1.56-4.54H41.53zm-12.27-.14h-.02.02z" stroke="#00008F" stroke-width="2" stroke-linecap="round" stroke-linejoin="round"/></svg>
